icons/relative-direction-16.svg

<svg id="icons" xmlns="http://www.w3.org/2000/svg" viewBox="0 0 16 16"><defs><style>.cls-1{fill:none;}</style></defs><path d="M2,4H3V3H4V0H1V3H2ZM2,1H3V2H2ZM2,8H3v2H2ZM3,7H2V5H3ZM15,5.99994v-3H12V5.43359l-8,8V13H3V11H2v2H1v3H4V14.56641l8.56647-8.56647ZM3,15H2V14H3ZM13,3.99994h1v1H13ZM6.94727,2H5V1H6.94727a1.75964,1.75964,0,0,1,1.29492.56934L10,3.308V1h1V5H7V4H9.278L7.52246,2.2627A.77863.77863,0,0,0,6.94727,2Z"/><rect class="cls-1" width="16" height="16"/></svg>

<svg xmlns="http://www.w3.org/2000/svg" viewBox="0 0 16 16"><path d="M2 4h1V3h1V0H1v3h1zm0-3h1v1H2zm0 7h1v2H2zm1-1H2V5h1zm12-1V3h-3v2.434l-8 8V13H3v-2H2v2H1v3h3v-1.434L12.566 6zM3 15H2v-1h1zM13 4h1v1h-1zM6.947 2H5V1h1.947a1.76 1.76 0 0 1 1.295.57L10 3.307V1h1v4H7V4h2.278L7.522 2.263A.779.779 0 0 0 6.947 2z"/><path fill="none" d="M0 0h16v16H0z"/></svg>
